X: 3705
T: St Andrews of Brampton
P: The Quarry Weel
C:J. Stanley Hamilton
R:Reel (4x32)
B:RSCDS 37-5
Z:Anselm Lingnau <anselm@strathspey.org>
M:C|
L:1/8
K:A
|:CB,|"A"A,CEA CEAc|EAce Acea|"D"fedc "Bm"dcBA|"B7"GBAF "E7"EDCB,|
      "A"A,CEA CEAc|EAce Acea|"D"fedc "Bm"dcBA|"E7"EAGB "A"A2:|
cd|"A"ecAc eAce|agfe fedc|"D"fedc "Bm"dcBA|"B7"GBAF "E7"E2 cd|
   "A"ecAc eAce|agfe fedc|"D"fedc "Bm"dcBA|"E7"EAGB "A"A2 cd|
   "A"ecAc eAce|agfe fedc|"D"fedc "Bm"dcBA|"B7"GBAF "E7"EDCB,|
   "A"A,CEA CEAc|EAce Acea|"D"fedc "Bm"dcBA|"E7"EAGB "A"A2|]
%%center Book37/3705-St_Andrews_of_Brampton-AL.abc

%%sep 1 1 500
%%sep 1 1 500

